report_00007_2020-12-11T15:55:29.892Z/total-byte-weight/samples/pages/raw/histogram.svg

<svg width="640" height="490" xmlns="http://www.w3.org/2000/svg" xmlns:xlink="http://www.w3.org/1999/xlink"><path fill="#fff" d="M0 0h640v490H0z"/><defs><path id="d" stroke-width=".222" stroke="currentColor" d="M-1-1h2v2h-2z"/><path id="b" stroke-width=".222" stroke="currentColor" d="M0-1.33l-1.33 2h2.66z"/><path id="f" stroke-width=".222" stroke="currentColor" d="M0 1.33L1.265.411.782-1.067l-1.564-.009-.483 1.487z"/><use xlink:href="#b" id="c" stroke="currentColor" transform="rotate(180)"/><use xlink:href="#d" id="e" stroke="currentColor" transform="rotate(45)"/><circle id="a" stroke-width=".222" stroke="currentColor" cx="0" cy="0" r="1"/></defs><g fill="none" color="#000" stroke="currentColor"><path stroke="#000" d="M53.9 418h9m552.1 0h-9"/><text transform="translate(45.6 421.9)" stroke="none" fill="#000" font-family="Arial" font-size="12" text-anchor="end"><tspan>0</tspan></text></g><g fill="none" color="#000" stroke="currentColor"><path stroke="#000" d="M53.9 338h9m552.1 0h-9"/><text transform="translate(45.6 341.9)" stroke="none" fill="#000" font-family="Arial" font-size="12" text-anchor="end"><tspan>20</tspan></text></g><g fill="none" color="#000" stroke="currentColor"><path stroke="#000" d="M53.9 258h9m552.1 0h-9"/><text transform="translate(45.6 261.9)" stroke="none" fill="#000" font-family="Arial" font-size="12" text-anchor="end"><tspan>40</tspan></text></g><g fill="none" color="#000" stroke="currentColor"><path stroke="#000" d="M53.9 178.1h9m552.1 0h-9"/><text transform="translate(45.6 182)" stroke="none" fill="#000" font-family="Arial" font-size="12" text-anchor="end"><tspan>60</tspan></text></g><g fill="none" color="#000" stroke="currentColor"><path stroke="#000" d="M53.9 98.1h9m552.1 0h-9"/><text transform="translate(45.6 102)" stroke="none" fill="#000" font-family="Arial" font-size="12" text-anchor="end"><tspan>80</tspan></text></g><g fill="none" color="#000" stroke="currentColor"><path stroke="#000" d="M53.9 18.1h9m552.1 0h-9"/><text transform="translate(45.6 22)" stroke="none" fill="#000" font-family="Arial" font-size="12" text-anchor="end"><tspan>100</tspan></text></g><g fill="none" color="#000" stroke="currentColor"><path stroke="#000" d="M80.4 418v-9m0-390.9v9"/><text transform="translate(80.4 439.9)" stroke="none" fill="#000" font-family="Arial" font-size="12" text-anchor="middle"><tspan>2x10</tspan><tspan font-size="9.6" dy="-6">6</tspan></text></g><g fill="none" color="#000" stroke="currentColor"><path stroke="#000" d="M170.3 418v-9m0-390.9v9"/><text transform="translate(170.3 439.9)" stroke="none" fill="#000" font-family="Arial" font-size="12" text-anchor="middle"><tspan>3x10</tspan><tspan font-size="9.6" dy="-6">6</tspan></text></g><g fill="none" color="#000" stroke="currentColor"><path stroke="#000" d="M260.1 418v-9m0-390.9v9"/><text transform="translate(260.1 439.9)" stroke="none" fill="#000" font-family="Arial" font-size="12" text-anchor="middle"><tspan>4x10</tspan><tspan font-size="9.6" dy="-6">6</tspan></text></g><g fill="none" color="#000" stroke="currentColor"><path stroke="#000" d="M350 418v-9m0-390.9v9"/><text transform="translate(350 439.9)" stroke="none" fill="#000" font-family="Arial" font-size="12" text-anchor="middle"><tspan>5x10</tspan><tspan font-size="9.6" dy="-6">6</tspan></text></g><g fill="none" color="#000" stroke="currentColor"><path stroke="#000" d="M439.9 418v-9m0-390.9v9"/><text transform="translate(439.9 439.9)" stroke="none" fill="#000" font-family="Arial" font-size="12" text-anchor="middle"><tspan>6x10</tspan><tspan font-size="9.6" dy="-6">6</tspan></text></g><g fill="none" color="#000" stroke="currentColor"><path stroke="#000" d="M529.7 418v-9m0-390.9v9"/><text transform="translate(529.7 439.9)" stroke="none" fill="#000" font-family="Arial" font-size="12" text-anchor="middle"><tspan>7x10</tspan><tspan font-size="9.6" dy="-6">6</tspan></text></g><path stroke="#000" d="M53.9 18.1V418H615V18.1H53.9z" fill="none" color="#000"/><text transform="translate(275.6 457.9)" stroke="none" fill="#000" font-family="Arial" font-size="12" text-anchor="end" color="#000"><tspan>raw</tspan></text><g stroke="none" shape-rendering="geometricPrecision" fill="#9400D3" fill-opacity=".5" color="#000"><path d="M283.9 458.5h42.2v-9h-42.2zM55.5 418h.1v-4.1h-.1zM615 418h.1v-4.1h-.1zM614.9 418h.1V277.9h-.1z"/><path d="M614.9 418h.1V186h-.1zM53.9 418h.1v-4.1h-.1zM615 418h.1v-4.1h-.1z"/><path d="M615 418h.1v-4.1h-.1z"/><path d="M615 418h.1v-8.1h-.1z"/></g><text transform="translate(275.6 475.9)" stroke="none" fill="#000" font-family="Arial" font-size="12" text-anchor="end" color="#000"><tspan>score p10=2731008</tspan></text><path stroke="#009E73" d="M283.9 472h42.2m-180-54V398" fill="none" color="#000"/><text transform="translate(500.4 457.9)" stroke="none" fill="#000" font-family="Arial" font-size="12" text-anchor="end" color="#000"><tspan>score median=4096000</tspan></text><path stroke="#56B4E9" d="M508.7 454h42.2m-282.1-36V398" fill="none" color="#000"/><g fill="none" color="#000" stroke="currentColor"><path stroke="#000" d="M53.9 18.1V418H615V18.1H53.9z"/></g></svg>

<?xml version="1.0" encoding="utf-8"  standalone="no"?>
<svg 
 width="640" height="490"
 viewBox="0 0 640 490"
 xmlns="http://www.w3.org/2000/svg"
 xmlns:xlink="http://www.w3.org/1999/xlink"
>

<title>Gnuplot</title>
<desc>Produced by GNUPLOT 5.4 patchlevel 0 </desc>

<g id="gnuplot_canvas">

<rect x="0" y="0" width="640" height="490" fill="#ffffff"/>
<defs>

	<circle id='gpDot' r='0.5' stroke-width='0.5' stroke='currentColor'/>
	<path id='gpPt0' stroke-width='0.222' stroke='currentColor' d='M-1,0 h2 M0,-1 v2'/>
	<path id='gpPt1' stroke-width='0.222' stroke='currentColor' d='M-1,-1 L1,1 M1,-1 L-1,1'/>
	<path id='gpPt2' stroke-width='0.222' stroke='currentColor' d='M-1,0 L1,0 M0,-1 L0,1 M-1,-1 L1,1 M-1,1 L1,-1'/>
	<rect id='gpPt3' stroke-width='0.222' stroke='currentColor' x='-1' y='-1' width='2' height='2'/>
	<rect id='gpPt4' stroke-width='0.222' stroke='currentColor' fill='currentColor' x='-1' y='-1' width='2' height='2'/>
	<circle id='gpPt5' stroke-width='0.222' stroke='currentColor' cx='0' cy='0' r='1'/>
	<use xlink:href='#gpPt5' id='gpPt6' fill='currentColor' stroke='none'/>
	<path id='gpPt7' stroke-width='0.222' stroke='currentColor' d='M0,-1.33 L-1.33,0.67 L1.33,0.67 z'/>
	<use xlink:href='#gpPt7' id='gpPt8' fill='currentColor' stroke='none'/>
	<use xlink:href='#gpPt7' id='gpPt9' stroke='currentColor' transform='rotate(180)'/>
	<use xlink:href='#gpPt9' id='gpPt10' fill='currentColor' stroke='none'/>
	<use xlink:href='#gpPt3' id='gpPt11' stroke='currentColor' transform='rotate(45)'/>
	<use xlink:href='#gpPt11' id='gpPt12' fill='currentColor' stroke='none'/>
	<path id='gpPt13' stroke-width='0.222' stroke='currentColor' d='M0,1.330 L1.265,0.411 L0.782,-1.067 L-0.782,-1.076 L-1.265,0.411 z'/>
	<use xlink:href='#gpPt13' id='gpPt14' fill='currentColor' stroke='none'/>
	<filter id='textbox' filterUnits='objectBoundingBox' x='0' y='0' height='1' width='1'>
	  <feFlood flood-color='#FFFFFF' flood-opacity='1' result='bgnd'/>
	  <feComposite in='SourceGraphic' in2='bgnd' operator='atop'/>
	</filter>
	<filter id='greybox' filterUnits='objectBoundingBox' x='0' y='0' height='1' width='1'>
	  <feFlood flood-color='lightgrey' flood-opacity='1' result='grey'/>
	  <feComposite in='SourceGraphic' in2='grey' operator='atop'/>
	</filter>
</defs>
<g fill="none" color="#FFFFFF" stroke="black" stroke-width="1.00" stroke-linecap="butt" stroke-linejoin="miter">
</g>
<g fill="none" color="black" stroke="currentColor" stroke-width="1.00" stroke-linecap="butt" stroke-linejoin="miter">
	<path stroke='black'  d='M53.9,418.0 L62.9,418.0 M615.0,418.0 L606.0,418.0  '/>	<g transform="translate(45.6,421.9)" stroke="none" fill="black" font-family="Arial" font-size="12.00"  text-anchor="end">
		<text><tspan font-family="Arial" > 0</tspan></text>
	</g>
</g>
<g fill="none" color="black" stroke="currentColor" stroke-width="1.00" stroke-linecap="butt" stroke-linejoin="miter">
	<path stroke='black'  d='M53.9,338.0 L62.9,338.0 M615.0,338.0 L606.0,338.0  '/>	<g transform="translate(45.6,341.9)" stroke="none" fill="black" font-family="Arial" font-size="12.00"  text-anchor="end">
		<text><tspan font-family="Arial" > 20</tspan></text>
	</g>
</g>
<g fill="none" color="black" stroke="currentColor" stroke-width="1.00" stroke-linecap="butt" stroke-linejoin="miter">
	<path stroke='black'  d='M53.9,258.0 L62.9,258.0 M615.0,258.0 L606.0,258.0  '/>	<g transform="translate(45.6,261.9)" stroke="none" fill="black" font-family="Arial" font-size="12.00"  text-anchor="end">
		<text><tspan font-family="Arial" > 40</tspan></text>
	</g>
</g>
<g fill="none" color="black" stroke="currentColor" stroke-width="1.00" stroke-linecap="butt" stroke-linejoin="miter">
	<path stroke='black'  d='M53.9,178.1 L62.9,178.1 M615.0,178.1 L606.0,178.1  '/>	<g transform="translate(45.6,182.0)" stroke="none" fill="black" font-family="Arial" font-size="12.00"  text-anchor="end">
		<text><tspan font-family="Arial" > 60</tspan></text>
	</g>
</g>
<g fill="none" color="black" stroke="currentColor" stroke-width="1.00" stroke-linecap="butt" stroke-linejoin="miter">
	<path stroke='black'  d='M53.9,98.1 L62.9,98.1 M615.0,98.1 L606.0,98.1  '/>	<g transform="translate(45.6,102.0)" stroke="none" fill="black" font-family="Arial" font-size="12.00"  text-anchor="end">
		<text><tspan font-family="Arial" > 80</tspan></text>
	</g>
</g>
<g fill="none" color="black" stroke="currentColor" stroke-width="1.00" stroke-linecap="butt" stroke-linejoin="miter">
	<path stroke='black'  d='M53.9,18.1 L62.9,18.1 M615.0,18.1 L606.0,18.1  '/>	<g transform="translate(45.6,22.0)" stroke="none" fill="black" font-family="Arial" font-size="12.00"  text-anchor="end">
		<text><tspan font-family="Arial" > 100</tspan></text>
	</g>
</g>
<g fill="none" color="black" stroke="currentColor" stroke-width="1.00" stroke-linecap="butt" stroke-linejoin="miter">
	<path stroke='black'  d='M80.4,418.0 L80.4,409.0 M80.4,18.1 L80.4,27.1  '/>	<g transform="translate(80.4,439.9)" stroke="none" fill="black" font-family="Arial" font-size="12.00"  text-anchor="middle">
		<text><tspan font-family="Arial" > 2x10</tspan><tspan font-family="Arial"  font-size="9.6" dy="-6.00px">6</tspan><tspan font-size="12.0" dy="6.00"></tspan></text>
	</g>
</g>
<g fill="none" color="black" stroke="currentColor" stroke-width="1.00" stroke-linecap="butt" stroke-linejoin="miter">
	<path stroke='black'  d='M170.3,418.0 L170.3,409.0 M170.3,18.1 L170.3,27.1  '/>	<g transform="translate(170.3,439.9)" stroke="none" fill="black" font-family="Arial" font-size="12.00"  text-anchor="middle">
		<text><tspan font-family="Arial" > 3x10</tspan><tspan font-family="Arial"  font-size="9.6" dy="-6.00px">6</tspan><tspan font-size="12.0" dy="6.00"></tspan></text>
	</g>
</g>
<g fill="none" color="black" stroke="currentColor" stroke-width="1.00" stroke-linecap="butt" stroke-linejoin="miter">
	<path stroke='black'  d='M260.1,418.0 L260.1,409.0 M260.1,18.1 L260.1,27.1  '/>	<g transform="translate(260.1,439.9)" stroke="none" fill="black" font-family="Arial" font-size="12.00"  text-anchor="middle">
		<text><tspan font-family="Arial" > 4x10</tspan><tspan font-family="Arial"  font-size="9.6" dy="-6.00px">6</tspan><tspan font-size="12.0" dy="6.00"></tspan></text>
	</g>
</g>
<g fill="none" color="black" stroke="currentColor" stroke-width="1.00" stroke-linecap="butt" stroke-linejoin="miter">
	<path stroke='black'  d='M350.0,418.0 L350.0,409.0 M350.0,18.1 L350.0,27.1  '/>	<g transform="translate(350.0,439.9)" stroke="none" fill="black" font-family="Arial" font-size="12.00"  text-anchor="middle">
		<text><tspan font-family="Arial" > 5x10</tspan><tspan font-family="Arial"  font-size="9.6" dy="-6.00px">6</tspan><tspan font-size="12.0" dy="6.00"></tspan></text>
	</g>
</g>
<g fill="none" color="black" stroke="currentColor" stroke-width="1.00" stroke-linecap="butt" stroke-linejoin="miter">
	<path stroke='black'  d='M439.9,418.0 L439.9,409.0 M439.9,18.1 L439.9,27.1  '/>	<g transform="translate(439.9,439.9)" stroke="none" fill="black" font-family="Arial" font-size="12.00"  text-anchor="middle">
		<text><tspan font-family="Arial" > 6x10</tspan><tspan font-family="Arial"  font-size="9.6" dy="-6.00px">6</tspan><tspan font-size="12.0" dy="6.00"></tspan></text>
	</g>
</g>
<g fill="none" color="black" stroke="currentColor" stroke-width="1.00" stroke-linecap="butt" stroke-linejoin="miter">
	<path stroke='black'  d='M529.7,418.0 L529.7,409.0 M529.7,18.1 L529.7,27.1  '/>	<g transform="translate(529.7,439.9)" stroke="none" fill="black" font-family="Arial" font-size="12.00"  text-anchor="middle">
		<text><tspan font-family="Arial" > 7x10</tspan><tspan font-family="Arial"  font-size="9.6" dy="-6.00px">6</tspan><tspan font-size="12.0" dy="6.00"></tspan></text>
	</g>
</g>
<g fill="none" color="black" stroke="currentColor" stroke-width="1.00" stroke-linecap="butt" stroke-linejoin="miter">
</g>
<g fill="none" color="black" stroke="currentColor" stroke-width="1.00" stroke-linecap="butt" stroke-linejoin="miter">
	<path stroke='black'  d='M53.9,18.1 L53.9,418.0 L615.0,418.0 L615.0,18.1 L53.9,18.1 Z  '/></g>
<g fill="none" color="black" stroke="currentColor" stroke-width="1.00" stroke-linecap="butt" stroke-linejoin="miter">
</g>
	<g id="gnuplot_plot_1" ><title>raw</title>
<g fill="none" color="black" stroke="currentColor" stroke-width="1.00" stroke-linecap="butt" stroke-linejoin="miter">
	<g transform="translate(275.6,457.9)" stroke="none" fill="black" font-family="Arial" font-size="12.00"  text-anchor="end">
		<text><tspan font-family="Arial" >raw</tspan></text>
	</g>
</g>
<g fill="none" color="black" stroke="currentColor" stroke-width="1.00" stroke-linecap="butt" stroke-linejoin="miter">
	<g stroke='none' shape-rendering='geometricPrecision'>
		<polygon fill = 'rgb(148,   0, 211)' fill-opacity = '0.500000' points = '283.9,458.5 326.1,458.5 326.1,449.5 283.9,449.5 '/>
		<polygon fill = 'rgb(148,   0, 211)' fill-opacity = '0.500000' points = '55.5,418.0 55.6,418.0 55.6,413.9 55.5,413.9 '/>
		<polygon fill = 'rgb(148,   0, 211)' fill-opacity = '0.500000' points = '615.0,418.0 615.1,418.0 615.1,413.9 615.0,413.9 '/>
		<polygon fill = 'rgb(148,   0, 211)' fill-opacity = '0.500000' points = '614.9,418.0 615.0,418.0 615.0,277.9 614.9,277.9 '/>
		<polygon fill = 'rgb(148,   0, 211)' fill-opacity = '0.500000' points = '614.9,418.0 615.0,418.0 615.0,186.0 614.9,186.0 '/>
		<polygon fill = 'rgb(148,   0, 211)' fill-opacity = '0.500000' points = '53.9,418.0 54.0,418.0 54.0,413.9 53.9,413.9 '/>
		<polygon fill = 'rgb(148,   0, 211)' fill-opacity = '0.500000' points = '615.0,418.0 615.1,418.0 615.1,413.9 615.0,413.9 '/>
		<polygon fill = 'rgb(148,   0, 211)' fill-opacity = '0.500000' points = '615.0,418.0 615.1,418.0 615.1,413.9 615.0,413.9 '/>
		<polygon fill = 'rgb(148,   0, 211)' fill-opacity = '0.500000' points = '615.0,418.0 615.1,418.0 615.1,409.9 615.0,409.9 '/>
	</g>
</g>
	</g>
	<g id="gnuplot_plot_2" ><title>score p10=2731008</title>
<g fill="none" color="black" stroke="currentColor" stroke-width="1.00" stroke-linecap="butt" stroke-linejoin="miter">
	<g transform="translate(275.6,475.9)" stroke="none" fill="black" font-family="Arial" font-size="12.00"  text-anchor="end">
		<text><tspan font-family="Arial" >score p10=2731008</tspan></text>
	</g>
</g>
<g fill="none" color="black" stroke="currentColor" stroke-width="1.00" stroke-linecap="butt" stroke-linejoin="miter">
	<path stroke='rgb(  0, 158, 115)'  d='M283.9,472.0 L326.1,472.0 M146.1,418.0 L146.1,417.8 L146.1,417.4 L146.1,417.0 L146.1,416.6 L146.1,416.2
		L146.1,415.8 L146.1,415.4 L146.1,415.0 L146.1,414.6 L146.1,414.2 L146.1,413.8 L146.1,413.4 L146.1,413.0
		L146.1,412.5 L146.1,412.1 L146.1,411.7 L146.1,411.3 L146.1,410.9 L146.1,410.5 L146.1,410.1 L146.1,409.7
		L146.1,409.3 L146.1,408.9 L146.1,408.5 L146.1,408.1 L146.1,407.7 L146.1,407.3 L146.1,406.9 L146.1,406.5
		L146.1,406.1 L146.1,405.7 L146.1,405.3 L146.1,404.9 L146.1,404.5 L146.1,404.1 L146.1,403.7 L146.1,403.3
		L146.1,402.9 L146.1,402.4 L146.1,402.0 L146.1,401.6 L146.1,401.2 L146.1,400.8 L146.1,400.4 L146.1,400.0
		L146.1,399.6 L146.1,399.2 L146.1,398.8 L146.1,398.4 L146.1,398.0  '/></g>
	</g>
	<g id="gnuplot_plot_3" ><title>score median=4096000</title>
<g fill="none" color="black" stroke="currentColor" stroke-width="1.00" stroke-linecap="butt" stroke-linejoin="miter">
	<g transform="translate(500.4,457.9)" stroke="none" fill="black" font-family="Arial" font-size="12.00"  text-anchor="end">
		<text><tspan font-family="Arial" >score median=4096000</tspan></text>
	</g>
</g>
<g fill="none" color="black" stroke="currentColor" stroke-width="1.00" stroke-linecap="butt" stroke-linejoin="miter">
	<path stroke='rgb( 86, 180, 233)'  d='M508.7,454.0 L550.9,454.0 M268.8,418.0 L268.8,417.8 L268.8,417.4 L268.8,417.0 L268.8,416.6 L268.8,416.2
		L268.8,415.8 L268.8,415.4 L268.8,415.0 L268.8,414.6 L268.8,414.2 L268.8,413.8 L268.8,413.4 L268.8,413.0
		L268.8,412.5 L268.8,412.1 L268.8,411.7 L268.8,411.3 L268.8,410.9 L268.8,410.5 L268.8,410.1 L268.8,409.7
		L268.8,409.3 L268.8,408.9 L268.8,408.5 L268.8,408.1 L268.8,407.7 L268.8,407.3 L268.8,406.9 L268.8,406.5
		L268.8,406.1 L268.8,405.7 L268.8,405.3 L268.8,404.9 L268.8,404.5 L268.8,404.1 L268.8,403.7 L268.8,403.3
		L268.8,402.9 L268.8,402.4 L268.8,402.0 L268.8,401.6 L268.8,401.2 L268.8,400.8 L268.8,400.4 L268.8,400.0
		L268.8,399.6 L268.8,399.2 L268.8,398.8 L268.8,398.4 L268.8,398.0  '/></g>
	</g>
<g fill="none" color="#FFFFFF" stroke="rgb( 86, 180, 233)" stroke-width="2.00" stroke-linecap="butt" stroke-linejoin="miter">
</g>
<g fill="none" color="black" stroke="currentColor" stroke-width="2.00" stroke-linecap="butt" stroke-linejoin="miter">
</g>
<g fill="none" color="black" stroke="black" stroke-width="1.00" stroke-linecap="butt" stroke-linejoin="miter">
</g>
<g fill="none" color="black" stroke="currentColor" stroke-width="1.00" stroke-linecap="butt" stroke-linejoin="miter">
	<path stroke='black'  d='M53.9,18.1 L53.9,418.0 L615.0,418.0 L615.0,18.1 L53.9,18.1 Z  '/></g>
<g fill="none" color="black" stroke="currentColor" stroke-width="1.00" stroke-linecap="butt" stroke-linejoin="miter">
</g>
</g>
</svg>
